brandFactory_export/2.Regular/Data security_Seguridad de datos_2Regular.svg

<?xml version="1.0" encoding="UTF-8"?>
<svg width="24px" height="24px" viewBox="0 0 24 24" version="1.1" xmlns="http://www.w3.org/2000/svg" xmlns:xlink="http://www.w3.org/1999/xlink">
    <title>2.Regular/Data security_Seguridad de datos_2Regular</title>
    <g id="Symbols" stroke="none" stroke-width="1" fill="none" fill-rule="evenodd">
        <g id="2.Regular/Data-security_Seguridad-de-datos_2Regular" fill="#5CB615" fill-rule="nonzero">
            <path d="M6.34957983,17.5663866 C7.45210084,17.5462185 7.45210084,16.8168067 7.45210084,16.4638655 C7.45210084,16.1109244 7.45210084,15.3747899 6.33613445,15.3478992 L6.18151261,15.3445378 L6.14117647,15.3445378 C5.06890756,15.3546218 5.06890756,16.0638655 5.06890756,16.4470588 C5.06890756,16.8302521 5.06890756,17.5495798 6.16134454,17.5663866 L6.34957983,17.5663866 Z M6.36638655,13.9966387 C6.86722689,14.0067227 8.81008403,14.1983193 8.81008403,16.4638655 C8.81008403,18.7361345 6.8605042,18.9109244 6.37310924,18.9210084 L6.14117647,18.9210084 C5.6302521,18.9142857 3.70420168,18.7361345 3.70420168,16.4504202 C3.70420168,14.1680672 5.61008403,14 6.1210084,13.9966387 L6.17478992,13.9966387 C6.24537815,13.9932773 6.3092437,13.9966387 6.36638655,13.9966387 L6.36638655,13.9966387 Z M20.0672269,21.5193277 C21.0285714,21.2201681 22.1714286,20.6991597 22.1647354,19.9058824 L22.1344538,16.5411765 C21.6605042,16.8403361 21.0991597,17.102521 20.4571429,17.297479 C19.0218487,17.7411765 17.1394958,17.9966387 15.1596639,18.0134454 L14.9344538,18.0134454 C14.2084034,18.0134454 13.5058824,17.9697479 12.8235294,17.9092437 L12.8235294,19.7210084 C12.8235294,20.7193277 12.4134454,21.3109244 12.0705882,21.6268908 C11.9495798,21.7378151 11.8218487,21.8285714 11.6907563,21.9092437 C12.7394958,22.0840336 13.9226891,22.1815126 15.1831933,22.1680672 C17.0218487,22.1546218 18.7529412,21.9226891 20.0672269,21.5193277 Z M1.72773109,20.5512605 C1.93277311,20.7663866 2.27226891,20.8705882 2.7394958,20.8705882 L10.0739496,20.8672269 C10.2890756,20.8773109 10.789916,20.8436975 11.0789916,20.5680672 C11.2705882,20.3865546 11.3647059,20.1109244 11.3647059,19.7277311 C11.3613445,17.6268908 11.3647059,13.3512605 11.3647059,13.3512605 C11.3680672,13.2941176 11.3915966,12.8369748 11.1058824,12.5378151 C10.9008403,12.3226891 10.5546218,12.2117647 10.0739496,12.2117647 L2.75630252,12.2184874 L2.73277311,12.2184874 C2.69915966,12.2184874 2.66554622,12.2151261 2.61848739,12.2151261 C2.41680672,12.2151261 2,12.2655462 1.74453782,12.5008403 C1.55294118,12.6789916 1.45882353,12.9579832 1.45882353,13.3478992 L1.45882353,19.7411765 C1.45882353,19.7882353 1.44201681,20.2521008 1.72773109,20.5512605 Z M6.22521008,7.14285714 C5.20336134,7.15294118 3.48571429,7.5394958 3.48571429,10.0403361 L3.48571429,10.7697479 L9.31764706,10.7630252 C9.32436975,10.7495798 9.33445378,10.7361345 9.33781513,10.7226891 L9.33781513,10.0605042 C9.33781513,7.48907563 7.38487395,7.16302521 6.54789916,7.14285714 L6.22521008,7.14285714 L6.22521008,7.14285714 Z M10.1109244,2.10420168 C9.01176471,2.44705882 8.3092437,2.8907563 8.0907563,3.36470588 C8.28907563,3.85210084 9.00840336,4.30252101 10.1478992,4.62857143 C11.4554622,5.00840336 13.1966387,5.22689076 15.0352941,5.18655462 C16.8806723,5.1697479 18.6117647,4.93781513 19.912605,4.53445378 C21.0184874,4.19159664 21.7277311,3.74117647 21.9361345,3.26386555 C21.6739496,2.65546218 20.7092437,2.2487395 19.8789916,2.01008403 C18.5680672,1.63361345 16.8268908,1.43865546 14.9882353,1.45210084 C13.1462185,1.47226891 11.4117647,1.70084034 10.1109244,2.10420168 L10.1109244,2.10420168 Z M12.8235294,13.4117647 C12.8268908,13.4117647 12.8268908,14.8470588 12.8268908,16.4571429 C13.5731092,16.5310924 14.3462185,16.5747899 15.1495798,16.5680672 C16.9882353,16.5512605 18.7226891,16.3193277 20.0268908,15.9159664 C21.2235294,15.5462185 21.8823529,15.0016807 22.1176471,14.6117647 L22.0840336,10.8403361 C21.610084,11.1394958 21.0487395,11.3983193 20.4067227,11.5966387 C18.9714286,12.0403361 17.092437,12.2957983 15.1092437,12.3159664 L14.8773109,12.3159664 C14.0907563,12.3159664 13.3344538,12.2689076 12.605042,12.1983193 C12.8605042,12.7831933 12.8302521,13.3310924 12.8235294,13.4117647 L12.8235294,13.4117647 Z M8.03361345,5.94957983 C9.50588235,6.44033613 10.8,7.68739496 10.8,10.0638655 L10.8,10.4470588 C12.0268908,10.7294118 13.5226891,10.8806723 15.092437,10.8672269 C16.9344538,10.8504202 18.6689076,10.6184874 19.9697479,10.2151261 C21.1663866,9.84537815 21.8252101,9.30420168 22.0605042,8.91092437 L22.0268908,5.19327731 C21.5731092,5.47226891 21.0218487,5.71764706 20.3495798,5.92268908 C18.9142857,6.36638655 17.0352941,6.62184874 15.0521008,6.64201681 L14.8201681,6.64201681 C12.9243697,6.64201681 11.1294118,6.42352941 9.74453782,6.02352941 C9.06218487,5.82857143 8.49411765,5.58655462 8.0302521,5.30420168 L8.03361345,5.94957983 L8.03361345,5.94957983 Z M23.4689076,3.57310924 L23.6236567,19.892437 C23.6369748,21.2436975 22.5848739,22.2588235 20.5008403,22.9042017 C19.0554622,23.3478992 17.1731092,23.6033613 15.2,23.6201681 L14.9815126,23.6201681 C13.0857143,23.6201681 11.287395,23.4016807 9.89243697,23.0016807 C9.23697479,22.8134454 8.69579832,22.5781513 8.24537815,22.3159664 L2.74621849,22.3193277 C1.85210084,22.3193277 1.14957983,22.0537815 0.658823529,21.5294118 C-0.0504201681,20.7731092 -1.30104261e-17,19.7915966 0.00672268908,19.6840336 L0.00336134454,13.3445378 C0.00336134454,12.3361345 0.416806723,11.7445378 0.766386555,11.4252101 C1.1697479,11.0588235 1.64033613,10.8941176 2.0302521,10.8201681 L2.0302521,10.0369748 C2.0302521,6.85714286 4.28571429,5.70756303 6.21512605,5.6907563 L6.57142857,5.69411765 L6.5512605,3.73109244 C6.5512605,3.51260504 6.57815126,3.30084034 6.63529412,3.09915966 L6.63529412,3.09579832 C6.92773109,2.05714286 7.94957983,1.25714286 9.67731092,0.722689076 C11.112605,0.278991597 12.994958,0.0235294118 14.9781513,0.00672268908 C16.9781513,-0.0336134454 18.8470588,0.208403361 20.2890756,0.621848739 C22.3865546,1.22689076 23.4554622,2.22184874 23.4689076,3.57310924 Z" id="Data-security_Seguridad-de-datos_2Regular"></path>
        </g>
    </g>
</svg>

<svg width="24" height="24" viewBox="0 0 24 24" xmlns="http://www.w3.org/2000/svg"><path d="M6.35 17.566c1.102-.02 1.102-.75 1.102-1.102 0-.353 0-1.09-1.116-1.116l-.154-.003h-.04c-1.073.01-1.073.719-1.073 1.102 0 .383 0 1.103 1.092 1.12h.189zm.016-3.57c.501.01 2.444.202 2.444 2.468 0 2.272-1.95 2.447-2.437 2.457h-.232c-.51-.007-2.437-.185-2.437-2.47 0-2.283 1.906-2.451 2.417-2.454h.054c.07-.004.134 0 .191 0zm13.701 7.523c.962-.299 2.104-.82 2.098-1.613l-.03-3.365c-.474.3-1.036.562-1.678.756-1.435.444-3.318.7-5.297.716h-.226c-.726 0-1.428-.043-2.11-.104v1.812c0 .998-.41 1.59-.753 1.906a2.47 2.47 0 01-.38.282c1.048.175 2.232.273 3.492.26 1.839-.014 3.57-.246 4.884-.65zm-18.34-.968c.206.215.545.32 1.012.32l7.335-.004c.215.01.716-.023 1.005-.299.192-.181.286-.457.286-.84-.004-2.101 0-6.377 0-6.377.003-.057.027-.514-.26-.813-.204-.215-.55-.326-1.031-.326l-7.318.006h-.023c-.034 0-.067-.003-.115-.003-.201 0-.618.05-.873.286-.192.178-.286.457-.286.847v6.393c0 .047-.017.511.269.81zM6.226 7.143c-1.022.01-2.74.396-2.74 2.897v.73l5.833-.007c.006-.013.016-.027.02-.04v-.662c0-2.572-1.953-2.898-2.79-2.918h-.323zm3.886-5.039c-1.1.343-1.802.787-2.02 1.26.198.488.917.939 2.057 1.265 1.307.38 3.049.598 4.887.558 1.846-.017 3.577-.25 4.878-.653 1.105-.342 1.815-.793 2.023-1.27-.262-.609-1.227-1.015-2.057-1.254-1.31-.376-3.052-.571-4.89-.558-1.843.02-3.577.249-4.878.652zm2.713 11.308c.003 0 .003 1.435.003 3.045.746.074 1.52.118 2.323.111 1.838-.017 3.573-.249 4.877-.652 1.197-.37 1.855-.914 2.09-1.304l-.033-3.772c-.474.3-1.035.558-1.677.757-1.436.443-3.315.699-5.298.719h-.232c-.786 0-1.543-.047-2.272-.118.256.585.225 1.133.219 1.214zM8.034 5.95c1.472.49 2.766 1.737 2.766 4.114v.383c1.227.282 2.723.434 4.292.42 1.842-.017 3.577-.249 4.878-.652 1.196-.37 1.855-.91 2.09-1.304l-.033-3.718a7.19 7.19 0 01-1.677.73c-1.436.443-3.315.699-5.298.719h-.232c-1.896 0-3.69-.218-5.075-.618-.683-.195-1.25-.437-1.715-.72l.004.646zm15.435-2.377l.155 16.32c.013 1.35-1.04 2.366-3.123 3.011-1.446.444-3.328.7-5.301.716h-.218c-1.896 0-3.695-.218-5.09-.618a7.209 7.209 0 01-1.647-.686l-5.499.003c-.894 0-1.596-.265-2.087-.79-.71-.756-.659-1.737-.652-1.845l-.004-6.34c0-1.008.414-1.6.763-1.919a2.572 2.572 0 011.264-.605v-.783c0-3.18 2.256-4.33 4.185-4.346l.356.003-.02-1.963c0-.218.027-.43.084-.632v-.003C6.928 2.057 7.95 1.257 9.677.723c1.436-.444 3.318-.7 5.301-.716 2-.04 3.87.201 5.311.615 2.098.605 3.166 1.6 3.18 2.951z" fill="#5CB615" fill-rule="nonzero"/></svg>
